X: 16131
T: Green Grow The Rushes
R: barndance
M: 4/4
K: Gmajor
|:"G"G2 BA BGGB|"Am"A/A/A ed eAAB|"C"c2 ce "G"dcBG|"Am"A/A/A BA "Em"GE"G"DE:|
"G"Ggga gedg|"Am"eaab agef|"G"ga"Em"ba "G"gedB|"Am"A/A/A BA "Em"GE"G"DE|
"G"Ggga gedg|"Am"eaab agef|"G"gb"Em"eg "G"dgBG|"Am"A/A/A BA "Em"GE"G"DE||

